X: 1
T: Mrs Kelly's Chickens
O: Ireland
R: waltz, mazurka
Z: 2009 John Chambers <jc:trillian.mit.edu>
M: 3/4
L: 1/8
K: D
FA \
|: "D"f2 fg ec | d2 dA FG \
| "A7"A2 G2 E2 | A2 c2 e2 \
| "A7"g2 f2 e2 | d2 c2 B2 \
|1,3 "A7"A2 ^GA BA | "D"F4 FA \
:|2,4 "A7"A2 ^GA Bc | "D"d4 :|
cB \
|: "D"Ad f2 f2 | Ad f2 f2 \
|  "D"Ad f2 f2 | a2 ba ge \
| "A7"Ac e2 e2 | Ac e2 e2 \
|1 "A7"Ac e2 e2 | a2 ba ge \
:|2 "A7"a2 ba ge | "D"d4 |]
|: FA \
| "D"d2 df ed | "A7"cA A2 dc \
| "G"BG G2 GB | "D"A2 F2 D2 \
| "D"d2 df ed | "A7"cA A2 AB \
| "A7"A2 G2 E2 | "D"D4 :|
